X:1
T:Title
%%score { ( 1 3 ) | 2 }
L:1/8
Q:1/4=110
M:4/4
K:A
V:1 treble nm="Grand Piano"
V:3 treble 
V:2 bass 
V:1
 [Ec]3 [Fd] [Ec]>[DB] [CA]>[DB] | [Ec]4 [CA]2 [CE]>[CE] | [DF]2 [DA]2 [^DA]2 [Dc]2 | [DB]6 z2 | %4
w: William~J.~Kirkpatrick * * * * *||||
 [Ec]3 [Fd] [Ec]>[DB] [CA]>[DB] | [Ec]4 [CA]2 [CE]>[CE] | F2 B2 A2 G2 |[M:3/4] [CA]6 | %8
w: ||||
[M:1/4] [B,G]>[CA] |[M:4/4] [DB]4 [DE]2 z2 | [Ec]4 [CA]2 z2 | d>d d>d c>c B>A |[M:9/8] B6- B z z | %13
w: |||||
[M:4/4] [Ec]4 [CA]2[K:bass] z2[K:treble] | %14
w: |
[M:17/16] [DF]/-[DF]/-[DF]/-[DF]/-[DF]-<[DF][FA]/-[FA]-<[FA] z/ z/ z | %15
w: |
[M:4/4] [Ec] .[Ec]3 [EAc]2 [DGB]2 |[M:3/4] [CEA]6 |] %17
w: ||
V:2
 [A,,A,]3 [A,,A,] [A,,A,]>[A,,A,] [A,,A,]>[A,,A,] | [A,,A,]4 [A,,E,]2 [A,,A,]>[A,,A,] | %2
 [D,A,]2 [D,F,]2 [B,,F,]2 [B,,A,]2 | [E,G,]6 z2 | %4
 [A,,A,]3 [A,,A,] [A,,A,]>[A,,E,] [A,,E,]>[A,,E,] | [A,,A,]4 [A,,A,]2 [A,,A,]>[A,,A,] | %6
 [D,A,D]2 [D,F,D]2 [E,C]2 [E,B,]2 |[M:3/4] [A,,E,]6 |[M:1/4] E,>A, | %9
[M:4/4] G,>G, E,>E, E,>D, C,>[B,,G,] | [A,,A,]>A,, A,,>A,, [A,,E,]A,, [G,E]>[A,E] | %11
 [B,E]>[B,E] [E,B,E]>[E,B,E] [A,E]>[A,E] [A,DE]>[A,CE] | %12
[M:9/8] [G,B,E]>[G,B,][F,A,]- [F,A,]/[F,A,]/ [E,G,]2- [E,G,][A,C]>[A,D] | %13
[M:4/4] A,>A, A,,>A,, [A,,E,]>A,, A,,>A,, |[M:17/16] D,>D,D,>D,D,D,3/2D,[D,A,] | %15
[M:4/4] [E,A,] .[E,A,]3 E,2 E,2 |[M:3/4] A,,6 |] %17
V:3
 x8 | x8 | x8 | x8 | x8 | x8 | x8 |[M:3/4] x6 |[M:1/4] x2 |[M:4/4] z2 G,>G, G,>G, [A,EA]>[EB] | %10
 z z/ A,/ A,>A, z E, B>c | x8 |[M:9/8] z z/ E/^D- D/D/ =D2- DA>B | %13
[M:4/4] z2 A,>A, z z/[K:bass] E,/ [A,CE]>[K:treble][A,CE] |[M:17/16] A,>A,A,>A,DD3/2[A,FA][^EB] | %15
[M:4/4] x8 |[M:3/4] x6 |] %17

